Simply-Cyan-Circles/scalable/apps/thunderbird.svg

<svg xmlns="http://www.w3.org/2000/svg" width="48" height="48" viewBox="0 0 12.7 12.7"><path fill="#5beedc" d="M6.344.073a6.29 6.29 0 0 0-6.29 6.29 6.29 6.29 0 0 0 6.29 6.288 6.29 6.29 0 0 0 6.29-6.289 6.29 6.29 0 0 0-6.29-6.29zm-.018.936a5.407 5.407 0 0 1 5.407 5.407 5.407 5.407 0 0 1-5.407 5.407A5.407 5.407 0 0 1 .92 6.416 5.407 5.407 0 0 1 6.326 1.01zm-.66.516c-.232-.017-.879.132-1.444.753-1.737.723-2.777 2.32-2.777 4.058 0 1.923 1.074 3.046 1.852 3.555l.005.004c.118.084.246.156.383.215.14.066.256.105.325.113.026.008-.346-.58-.51-1.289.32.326.702.584 1.13.629.044.006-.151-.237-.367-.556l3.468 1.154c-.316.323-.736.634-1.307.911 0 0 1.286-.105 1.924-.822-.26.596-.971.918-.971.918.523-.077 1.899-.483 2.775-1.578.991-1.24 1.29-2.404.991-3.963-.302-1.58-1.664-3.025-2.87-3.314a3.698 3.698 0 0 0-1.292-.446c-.568-.073-1.043-.06-1.447.019.127-.122.273-.182.273-.182-.19.017-.428.141-.632.273-.02.006-.038.015-.059.022-.07.015-.135.036-.204.054.05-.064.104-.13.158-.181.24-.228.596-.347.596-.347zm.162 1.22c-.121.06-.244.14-.365.235a3.47 3.47 0 0 0-.182.152c-.3.269-.586.608-.823.917a.222.222 0 0 1 .02.084.308.308 0 0 1-.006.094l-.009.041a.565.565 0 0 1-.027.074l-.002.007a.553.553 0 0 1-.061.107.408.408 0 0 1-.309.141c-.12.18-.194.3-.194.3a1.945 1.945 0 0 1-.074-.65c.002-.027.007-.055.01-.083a1.158 1.158 0 0 1 .031-.154.86.86 0 0 1 .036-.099c.009-.022.017-.045.029-.066l.01-.018a.62.62 0 0 1 .076-.107c.553-.61 1.926-1.018 1.84-.974zM2.97 4.114l.15.028.17.027c.009.062.019.124.033.19.034.154.04.399.007.557-.007.032-.093.114-.116.335v.02c-.232-.343-.53-.783-.584-.856a1.44 1.44 0 0 1 .34-.301zm1.221.1a.14.14 0 0 0-.124.068.045.045 0 0 1 .028-.01.045.045 0 0 1 .045.046.045.045 0 0 1-.045.044.045.045 0 0 1-.045-.041c-.002.01-.007.02-.007.03a.143.143 0 0 0 .138.147.143.143 0 0 0 .149-.137.144.144 0 0 0-.139-.147zm-.127.071a.045.045 0 0 0-.014.033.045.045 0 0 0 0 .002.137.137 0 0 1 .014-.035zm-1.522.244c.335.477 2.026 3.021 2.13 3.021h.002c.007-.003.015-.007.023-.009v.004c.734-.261 2.698-.937 3.86-1.336-.019.56-.2 1.056-.474 1.31.243-.056.507-.353.75-.82-.03.196-.055.436-.09.704-.082.6-.031 1.675-.92 2.658L2.187 8.186c-.165-.512-.238-1.11-.196-1.81.097.187.397.34.584.344-.225-.212-.693-1.256-.032-2.192zm2.575.036l3.256.542c.107.285.165.578.18.863-1.384.524-3.129 1.173-3.857 1.366l-.003.002c-.057.015-.68-.89-1.26-1.745.265-.337.505-.41.505-.41.41-.168.582-.348 1.02-.572a.538.538 0 0 1 .159-.046z"/></svg>

<?xml version="1.0" encoding="UTF-8" standalone="no"?>
<svg
   xmlns:dc="http://purl.org/dc/elements/1.1/"
   xmlns:cc="http://creativecommons.org/ns#"
   xmlns:rdf="http://www.w3.org/1999/02/22-rdf-syntax-ns#"
   xmlns:svg="http://www.w3.org/2000/svg"
   xmlns="http://www.w3.org/2000/svg"
   xmlns:sodipodi="http://sodipodi.sourceforge.net/DTD/sodipodi-0.dtd"
   xmlns:inkscape="http://www.inkscape.org/namespaces/inkscape"
   width="48"
   height="48"
   viewBox="0 0 12.7 12.7"
   version="1.1"
   id="svg4"
   sodipodi:docname="thunderbird.svg"
   inkscape:version="0.92.4 (5da689c313, 2019-01-14)">
  <metadata
     id="metadata10">
    <rdf:RDF>
      <cc:Work
         rdf:about="">
        <dc:format>image/svg+xml</dc:format>
        <dc:type
           rdf:resource="http://purl.org/dc/dcmitype/StillImage" />
        <dc:title></dc:title>
      </cc:Work>
    </rdf:RDF>
  </metadata>
  <defs
     id="defs8" />
  <sodipodi:namedview
     pagecolor="#ffffff"
     bordercolor="#666666"
     borderopacity="1"
     objecttolerance="10"
     gridtolerance="10"
     guidetolerance="10"
     inkscape:pageopacity="0"
     inkscape:pageshadow="2"
     inkscape:window-width="1087"
     inkscape:window-height="480"
     id="namedview6"
     showgrid="false"
     inkscape:zoom="4.9166667"
     inkscape:cx="2.1355932"
     inkscape:cy="24"
     inkscape:window-x="0"
     inkscape:window-y="25"
     inkscape:window-maximized="0"
     inkscape:current-layer="svg4" />
  <path
     d="m 6.344,0.073 a 6.29,6.29 0 0 0 -6.29,6.29 6.29,6.29 0 0 0 6.29,6.288 6.29,6.29 0 0 0 6.29,-6.289 6.29,6.29 0 0 0 -6.29,-6.29 z M 6.326,1.009 A 5.407,5.407 0 0 1 11.733,6.416 5.407,5.407 0 0 1 6.326,11.823 5.407,5.407 0 0 1 0.92,6.416 5.407,5.407 0 0 1 6.326,1.01 Z M 5.666,1.525 C 5.434,1.508 4.787,1.657 4.222,2.278 2.485,3.001 1.445,4.598 1.445,6.336 c 0,1.923 1.074,3.046 1.852,3.555 l 0.005,0.004 c 0.118,0.084 0.246,0.156 0.383,0.215 0.14,0.066 0.256,0.105 0.325,0.113 C 4.036,10.231 3.664,9.643 3.5,8.934 3.82,9.26 4.202,9.518 4.63,9.563 4.674,9.569 4.479,9.326 4.263,9.007 l 3.468,1.154 c -0.316,0.323 -0.736,0.634 -1.307,0.911 0,0 1.286,-0.105 1.924,-0.822 -0.26,0.596 -0.971,0.918 -0.971,0.918 C 7.9,11.091 9.276,10.685 10.152,9.59 11.143,8.35 11.442,7.186 11.143,5.627 10.841,4.047 9.479,2.602 8.273,2.313 A 3.698,3.698 0 0 0 6.981,1.867 C 6.413,1.794 5.938,1.807 5.534,1.886 5.661,1.764 5.807,1.704 5.807,1.704 5.617,1.721 5.379,1.845 5.175,1.977 5.155,1.983 5.137,1.992 5.116,1.999 5.046,2.014 4.981,2.035 4.912,2.053 4.962,1.989 5.016,1.923 5.07,1.872 5.31,1.644 5.666,1.525 5.666,1.525 Z m 0.162,1.22 C 5.707,2.805 5.584,2.885 5.463,2.98 A 3.47,3.47 0 0 0 5.281,3.132 C 4.981,3.401 4.695,3.74 4.458,4.049 A 0.222,0.222 0 0 1 4.478,4.133 0.308,0.308 0 0 1 4.472,4.227 L 4.463,4.268 A 0.565,0.565 0 0 1 4.436,4.342 L 4.434,4.349 A 0.553,0.553 0 0 1 4.373,4.456 0.408,0.408 0 0 1 4.064,4.597 c -0.12,0.18 -0.194,0.3 -0.194,0.3 A 1.945,1.945 0 0 1 3.796,4.247 C 3.798,4.22 3.803,4.192 3.806,4.164 A 1.158,1.158 0 0 1 3.837,4.01 0.86,0.86 0 0 1 3.873,3.911 C 3.882,3.889 3.89,3.866 3.902,3.845 L 3.912,3.827 A 0.62,0.62 0 0 1 3.988,3.72 C 4.541,3.11 5.914,2.702 5.828,2.746 Z M 2.97,4.114 3.12,4.142 3.29,4.169 C 3.299,4.231 3.309,4.293 3.323,4.359 3.357,4.513 3.363,4.758 3.33,4.916 3.323,4.948 3.237,5.03 3.214,5.251 v 0.02 C 2.982,4.928 2.684,4.488 2.63,4.415 A 1.44,1.44 0 0 1 2.97,4.114 Z m 1.221,0.1 A 0.14,0.14 0 0 0 4.067,4.282 0.045,0.045 0 0 1 4.095,4.272 0.045,0.045 0 0 1 4.14,4.318 0.045,0.045 0 0 1 4.095,4.362 0.045,0.045 0 0 1 4.05,4.321 C 4.048,4.331 4.043,4.341 4.043,4.351 A 0.143,0.143 0 0 0 4.181,4.498 0.143,0.143 0 0 0 4.33,4.361 0.144,0.144 0 0 0 4.191,4.214 Z M 4.064,4.285 A 0.045,0.045 0 0 0 4.05,4.318 0.045,0.045 0 0 0 4.05,4.32 0.137,0.137 0 0 1 4.064,4.285 Z M 2.542,4.529 C 2.877,5.006 4.568,7.55 4.672,7.55 H 4.674 C 4.681,7.547 4.689,7.543 4.697,7.541 V 7.545 C 5.431,7.284 7.395,6.608 8.557,6.209 8.538,6.769 8.357,7.265 8.083,7.519 8.326,7.463 8.59,7.166 8.833,6.699 8.803,6.895 8.778,7.135 8.743,7.403 8.661,8.003 8.712,9.078 7.823,10.061 L 2.187,8.186 C 2.022,7.674 1.949,7.076 1.991,6.376 2.088,6.563 2.388,6.716 2.575,6.72 2.35,6.508 1.882,5.464 2.543,4.528 Z M 5.117,4.565 8.373,5.107 C 8.48,5.392 8.538,5.685 8.553,5.97 7.169,6.494 5.424,7.143 4.696,7.336 L 4.693,7.338 C 4.636,7.353 4.013,6.448 3.433,5.593 3.698,5.256 3.938,5.183 3.938,5.183 4.348,5.015 4.52,4.835 4.958,4.611 A 0.538,0.538 0 0 1 5.117,4.565 Z"
     id="path2"
     inkscape:connector-curvature="0"
     style="fill:#5beedc" />
</svg>
